X: 52
T: JIG: Lilting Fisherman
C: C: Trad.; S: Conal O'Grada
C: Set Leaders: Mars, Tania
Z: Mars Agliullin ed.; Jeremy at The Session
N: https://thesession.org/members/26966/sets/94271
R: Jig
M: 6/8
L: 1/8
Q: 3/8=116
K: Gmaj
|:dBG GBd|~g3 ~e3|dBG GFG|AFD cBA|
dBG GBd|~g3 ~e3|dBG FGA|1 BGF G2B:|2 BGF G3||
K: Dmaj
|:~A3 AFA|~f3 f2e|dce dcB|AFF F2G|
~A3 AFA|~B3 B2e|cec ABc|1 dfe d2B:|2 dfe dfe||

